X:263
T:B263-  King Solomon
Q:1/4=120
M:4/4
L:1/4
K:Ddorian
DAAG|A3/2A/2E2|F3/2E/2DE/2F/2|G3/2F/2EE|\
DAAG|A3/2A/2EE|F3/2E/2DE/2F/2|G3/2F/2EE||\
DFEE|DD^C2|DC/2D/2EE|DFEE|\
DC/2B,/2DC|DC.D2|]

